X: 1
T: Monster Cafe 1 (final simple)
R: bourrée
M: 2/4
L: 1/8
K: Gdor
|: dc BA | ^F2 A/F/A/B/ | cG Bd | fe dA | 
dc BA | ^FD F /A/B/ | cB AG | cB AG :|
K: Gmin 
|: d2 d2 | d c2 d |  f d2 f| d3 c/d/ | 
ed cB | A3 d/c/ |1 BA GA  | G>A BA:|2 BA GA | G4 ||

